!!!!SEGMENT: pl-wnifc--13846--021_anonim--21-pije-kuba-do-jakuba.krn
!!!kernsource:
!!!cenid: 18xx:3243
!!!COM: Anonim
!!!COM-rismid: pe30004985
!!!CDT:
!!!CNT:
!!!OTL: 21. Pije Kuba do Jakuba
!!!PDT: 1833
!!!AGN:
!!!SMS-siglum: PL-Wnifc
!!!SMS-shelfmark: 13846
!!!SMS-shelfwork: 021 W
!!!SMS-variant:
!!!SMS-altvar:
!!!NIFC-rismid: 1001036764
!!!URL-scan: http://repozytorium.nifc.pl/skany/pl-wnifc-nut--13846
!!!ONB-nifc:
!!!OMD: Allegretto.
!!!key: C
**kern	**kern	**dynam	**kern	**text	**text
*part2	*part2	*part2	*part1	*part1	*part1
*staff3	*staff2	*	*staff1	*staff1	*staff1
*I"Fortepian	*I"Fortepian	*	*I"Głos	*	*
*Ipiano	*Ipiano	*	*Ivox	*	*
*ICklav	*ICklav	*	*ICvox	*	*
*IGacmp	*IGacmp	*	*Isolo	*	*
*clefF4	*clefG2	*	*clefG2	*	*
*k[]	*k[]	*	*k[]	*	*
*C:	*C:	*	*C:	*	*
*M2/4	*M2/4	*	*M2/4	*	*
*>[A,A,B,B,C,D,D]	*>[A,A,B,B,C,D,D]	*	*>[A,A,B,B,C,D,D]	*	*
=1-	=1-	=1-	=1-	=1-	=1-
*>A	*>A	*	*>A	*	*
!	!	!	!LO:TX:a:t=D.a.7.	!	!
8C/	8r	.	8cc\	Pi-	wi-
8r	8c/ 8e/ 8g/	.	8cc\	-je	-wat
8G\	8r	.	8b/	Ku-	ty,
8r	8B/ 8d/ 8g/	.	8g/	-ba	.
=2	=2	=2	=2	=2	=2
8C/	8r	.	8cc\	do	wi-
8r	8c/ 8e/ 8g/	.	8cc\	Ja-	-wat
8G\	8r	.	8b/	-kó-	ja,
8r	8B/ 8d/ 8g/	.	8g/	-ba,	.
!!LO:LB:g=original
=3	=3	=3	=3	=3	=3
8F\	8r	.	8a/	Ja-	kom-
8r	8A/ 8d/ 8a/	.	8a/	-kób	-pa-
8G\	8r	.	8b/	do	-ni-
8r	8G/ 8d/ 8f/	.	8b/	Mi-	-ja
=4	=4	=4	=4	=4	=4
4C/	8r	.	4cc\	-cha-	ca-
.	8G/ 8c/ 8e/	.	.	.	.
4r	4G/ 4c/ 4e/	.	4cc\	-ła:	-ła!
=5:|!|:	=5:|!|:	=5:|!|:	=5:|!|:	=5:|!|:	=5:|!|:
*>B	*>B	*>B	*	*>B	*
*^	*	*	*	*	*
4r	(2CC\	16c/LL 16e/	.	8cc\	A	.
.	.	16g/	.	.	.	.
.	.	16G/	.	8ee\	kto	.
.	.	16g/JJ	.	.	.	.
4C/)	.	16c/LL 16e/	.	8ee\	nie	.
.	.	16g/	.	.	.	.
.	.	16G/	.	8gg\	wy-	.
.	.	16g/JJ	.	.	.	.
!!LO:PB:g=original
=6	=6	=6	=6	=6	=6	=6
4r	(2GGG/	16B/LL 16d/	.	(8.gg\L	-pi-	.
.	.	16g/	.	.	.	.
.	.	16G/	.	.	.	.
.	.	16g/JJ	.	16ff\Jk)	.	.
4GG/)	.	16B/LL 16d/	.	4dd\	-je,	.
.	.	16g/	.	.	.	.
.	.	16G/	.	.	.	.
.	.	16g/JJ	.	.	.	.
=7	=7	=7	=7	=7	=7	=7
4r	(2CC/	16c/LL 16e/	.	8cc\	te-	.
.	.	16g/	.	.	.	.
.	.	16G/	.	8ee\	-go	.
.	.	16g/JJ	.	.	.	.
4C/)	.	16c/LL 16e/	.	8ee\	we	.
.	.	16g/	.	.	.	.
.	.	16G/	.	8gg\	dwa	.
.	.	16g/JJ	.	.	.	.
=8	=8	=8	=8	=8	=8	=8
4r	(<2GGG/	16B/LL 16d/	.	8.gg\L	ki-	.
.	.	16g/	.	.	.	.
.	.	16G/	.	.	.	.
.	.	16g/JJ	.	16ff\Jk	.	.
4GG/)	.	16B/LL 16d/	.	4dd\	-je,	.
.	.	16g/	.	.	.	.
.	.	16G/	.	.	.	.
.	.	16g/JJ	.	.	.	.
*v	*v	*	*	*	*	*
!!LO:LB:g=original
=9	=9	=9	=9	=9	=9
8CC/ 8C/	16r	.	8cc\	tu-	.
.	(16c/LL	.	.	.	.
8r	16e/	.	8cc\	-pu	.
.	16g/JJ)	.	.	.	.
8GGG/ 8GG/	16r	.	8b/	cu-	.
.	(16G/LL	.	.	.	.
8r	16d/	.	8g/	-pu,	.
.	16g/JJ)	.	.	.	.
=10	=10	=10	=10	=10	=10
8CC/ 8C/	16r	.	8cc\	tu-	.
.	(16c/LL	.	.	.	.
8r	16e/	.	8cc\	-pu	.
.	16g/JJ)	.	.	.	.
8GG/	16r	.	8b/	cu-	.
.	(16G/LL	.	.	.	.
8r	16d/	.	8g/	-pu	.
.	16g/JJ)	.	.	.	.
=11	=11	=11	=11	=11	=11
8FF/	16r	.	8a/	te-	.
.	(16A/LL	.	.	.	.
8r	16d/	.	8a/	-go	.
.	16a/JJ)	.	.	.	.
8GG/	16r	.	8b/	we	.
.	(16G/LL	.	.	.	.
8r	16d/	.	8b/	dwa	.
.	16f/JJ)	.	.	.	.
!!LO:LB:g=original
=12	=12	=12	=12	=12	=12
2CC/	16e/LL	.	4cc\	ki-	.
.	16c/	.	.	.	.
.	16e/	.	.	.	.
.	16g/JJ	.	.	.	.
.	4G/ 4c/ 4e/	.	4cc\	-je!	.
=13:|!	=13:|!	=13:|!	=13:|!	=13:|!	=13:|!
*>C	*>C	*	*>C	*	*
*M3/8	*M3/8	*	*M3/8	*	*
*	*	*^	*	*	*
!	!LO:TX:a:B:t=Allegro	!LO:DY:b:t=f.:rj	!LO:DY:b=2:t=f.:rj	!	!	!
(16CC/LL	4ee\ 4gg\	f	f	4gg\	Wy-	.
16EE/	.	.	.	.	.	.
16GG/	.	.	.	.	.	.
16C/)	.	.	.	.	.	.
16CC/`	8cc\ 8ee\	.	.	8ee\	-pił,	.
16C/`JJ	.	.	.	.	.	.
*	*	*v	*v	*	*	*
=14	=14	=14	=14	=14	=14
(16CC/LL	4ee\ 4gg\	.	4gg\	wy-	.
16EE/	.	.	.	.	.
16GG/	.	.	.	.	.
16C/)	.	.	.	.	.
(16CC/	8cc\ 8ee\	.	8ee\	-pił	.
16C/JJ)	.	.	.	.	.
!!LO:LB:g=original
=15	=15	=15	=15	=15	=15
(16GG/LL	8g\L 8dd\ 8ff\	.	8ff\	nic	.
16BB/	.	.	.	.	.
16D\	8g\ 8dd\ 8ff\	.	8ff\	nie	.
16G\)	.	.	.	.	.
(16GG/	8g\J 8dd\ 8ff\	.	8ff\	zo-	.
16G\JJ)	.	.	.	.	.
=16	=16	=16	=16	=16	=16
8C\ 8G\	8g\ 8dd\ 8ff\	.	8ff\	-sta-	.
4C\ 4G\	4g\ 4cc\ 4ee\	.	4ee\	-wił	.
=17!|:	=17!|:	=17!|:	=17!|:	=17!|:	=17!|:
*>D	*>D	*	*>D	*	*
8GGG/L 8GG/	8g\L 8b\ 8dd\	.	8dd\	bo-	.
8GG/ 8G/	8g\ 8b\ 8dd\	.	8dd\	-daj	.
8GG/J 8G/	8g\J 8b\ 8dd\	.	8dd\	go	.
!!LO:PB:g=original
=18	=18	=18	=18	=18	=18
8CC/L 8C/	8g\L 8cc\ 8ee\	.	8ee\	bo-	.
8C/ 8c/	8g\ 8cc\ 8ee\	.	8ee\	-daj	.
8C/J 8c/	8g\J 8cc\ 8ee\	.	8ee\	go,	.
=19	=19	=19	=19	=19	=19
!LO:TX:t=P:problem:mixed beam	!	!	!	!	!
8GGG/L 8GG/	8g\L 8dd\ 8ff\	.	8ff\	Bóg	.
8G\ 8B\ 8d\	8g\ 8dd\ 8ff\	.	8ff\	bło-	.
8G\J 8B\ 8d\	8g\J 8dd\ 8ff\	.	8ff\	-go-	.
=20	=20	=20	=20	=20	=20
*^	*	*	*	*	*
8c/	8C\ 8G\	8g\ 8dd\ 8ff\	.	8ff\	-sła-	.
4c/	4C\ 4G\	4g\ 4cc\ 4ee\	.	4ee\	-wił.	.
*v	*v	*	*	*	*	*
!!LO:LB:g=original
=:|!	=:|!	=:|!	=:|!	=:|!	=:|!
*-	*-	*-	*-	*-	*-
!!!system-decoration: s1,{(s2,s3)}
!!!RDF**kern: < = below
!!!RDF**kern: > = above
!!!ENC: Marta Chmielewska
!!!END: 2021-11-10
